X:3
T:Sternlein Polka  CGF (5letras transposed)
%%MIDI program 21
R:Polka
M:2/4
L:1/16
K:C transpose=3 %%MIDI gchordon
{/f}e^d [P:A] |: "C"egdg c2cd | "G7"Tc2Bf B3A | G2Gf A2AB | "C"A2G^F G2e^d | egdg c2cd | \
"G7"c2Bf B3A |
 G2Gf edAB |1 "C"c2e2 c2{/f}e^d :|2 "C"c2c2 c2eB [P:B] |: [K:G] "D7"c2cg f2ce | "G"dedG B2Be | \
"D7"dedF c2ce |
 "G"dedG B2eB | "D7"c2cg f2ce | "G"dedG B2d^d | "D7"e2fe d2cF |1 "G"G2B2 G2eB :|2 \
"G"G2B2 G2{=f}e"_>Teil A"^d || [P:C] [K:F] AB |:
 "F"c6ag | f6 (3fed | c2c2 cfed | \
c6AB | c6 ag | f6 (3fed | "C7"cdcd cbde |1 "F"f6 AB :|2 "F"f6z2 |] 
W:Parts: ABAC
% pk00842

